X:1
T:Sonata in D minor
T:K.1
T:Domenico Scarlatti
%%score { ( 1 2 4 ) | 3 }
L:1/8
Q:1/4=115
M:4/4
K:F
V:1 treble nm="Piano" snm="Pno."
V:2 treble 
V:4 treble 
V:3 bass 
V:1
"^Allegro" d/e/f/g/ a/A/^c/A/ D/E/F/G/ A/[I:staff +1]A,/^C/A,/ |[I:staff -1] DEFG AAAA | %2
 [FA][FA][FA]F[I:staff +1] E,[I:staff -1][GB][GB][GB] | %3
 [EG][EG][EG]E[I:staff +1] E,[I:staff -1][GB][GB][GB] | %4
 [DF][DF][DF]D[I:staff +1] E,[I:staff -1][EG][EG][EG] | EEE x D x x2 | %6
 ^C/[I:staff +1]A,/[I:staff -1]F/D/ E/[I:staff +1]C/[I:staff -1]F/D/ G/E/A/F/ =B/G/^c/A/ | %7
 =B^c de f/d/_B/G/ e/c/A/c/ | f/d/B/G/ e/^c/A/c/ f/d/B/G/ e/c/A/c/ | DEFG x4 | %10
 F/D/G/E/ A/F/E/D/ ^C/[I:staff +1]A,/[I:staff -1]D/[I:staff +1]B,/[I:staff -1] E/[I:staff +1]C/[I:staff -1]F/D/ | %11
 G/G/F/E/ FTG3/4F/8G/8 A/E/F/D/ E/^C/F | ED ^C/[I:staff +1]E,/^C,/E,/[I:staff -1] x4 :: %13
 A/=B/^c/d/ e/c/f/d/ e3 A | GA =B^c DE^FE | G/ x/ x x2 D/ x/ x x2 | %16
[I:staff +1] B,/G,/C/A,/[I:staff -1] D/[I:staff +1]B,/[I:staff -1]E/[I:staff +1]C/[I:staff -1] F/D/G/E/ A/F/B/G/ | %17
 c2 TB2 c2 TB2 | ca Bg A/F/c/A/ f/c/a/f/ | e/g/c/e/ G/c/B/A/ B/G/d/B/ g/d/b/g/ | %20
 f/a/d/f/ A/d/c/=B/ c/A/e/c/ a/e/c'/a/ | ^g/=b/e/g/ =B/d/^c/G/ ca Ta2- | %22
 a/g/f/e/ d/c/B/A/ Bg Tg2- | g/f/e/d/ c/B/A/G/ Af Tf2- | f/e/d/c/ B/A/G/F/ Ge Te2- | %25
 e/d/c/B/ A/G/F/E/ F/D/G/E/ A/F/_B/G/ | F/D/G/E/ A/F/B/G/ F/D/G/E/ A/F/B/G/ | Af Ge Af Ge | %28
 Af Ge F/D/G/E/ A/F/=B/G/ | c/A/d/e/ f/d/e/c/ d/A/B/G/ A/F/B | AG F/ x/ x x4 :| %31
V:2
 x4 d3 e | f/d/g/e/ a/f/e/d/ ^ca Ta2- | a/g/f/e/ d/c/B/A/ Bg Tg2- | g/f/e/d/ c/B/A/G/ Af Tf2- | %4
 f/e/d/c/ B/A/G/F/ Ge Te2- | e/d/^c/=B/ A/G/F/E/ F/D/G/E/ A/F/E/D/ | x8 | %7
 d/=B/e/^c/ f/d/g/e/ a2 Tg2 | a2 Tg2 a2 Tg2 | f/d/g/e/ a/f/e/d/ ^c/A/d/=B/ e/G/F/E/ | D/ x15/2 | %11
 x8 | x8 :: x8 | =B/G/^c/A/ d/B/e/c/ ^f/d/g/e/ a/=c/_B/A/ | %15
 B/G/c/A/ d/B/A/G/ ^F/D/G/E/ A/[I:staff +1]C/B,/A,/ | x8 | %17
[I:staff -1] A/E/D/[I:staff +1]B,/[I:staff -1] G/E/C/E/ A/F/D/[I:staff +1]B,/[I:staff -1] G/E/C/E/ | %18
 A/F/D/[I:staff +1]B,/[I:staff -1] G/E/C/E/ F[I:staff +1]F,F,F,, | x8 | x8 | x8 | x8 | x8 | x8 | %25
 x[I:staff -1] EE x5 | x8 | x8 | x d x ^c D x3 | x8 | x8 :| %31
V:3
 x8 | x8 | x8 | x8 | x8 | A,A,A,A, D,E,F,G, | A, x ^C[I:staff -1]D EF GA |[I:staff +1] x8 | x8 | %9
 x4 A,=B,^CA, | D,E,F,G, A,=B, ^C[I:staff -1]D | %11
[I:staff +1] E,/[I:staff -1]E/D/^C/ D[I:staff +1]B, A,,2 x[I:staff -1] D/[I:staff +1]=B,/ | %12
 ^C/A,/=B,/^G,/ A,/ x/ x TA,,2 !fermata!z2 :: x4 A,/=B,/^C/[I:staff -1]D/ E/^C/F/D/ | %14
[I:staff +1] x8 | x8 | G,A, B,C[I:staff -1] DE FG |[I:staff +1] x8 | x8 | %19
 C,CC[I:staff -1]^F G[I:staff +1]G,G,G,, | D,[I:staff -1]DD^G A[I:staff +1]A,A,A,, | %21
 E,E,,E,,E,, A,,[I:staff -1]AAA | %22
[I:staff +1] F,,[I:staff -1][FA][FA]F[I:staff +1] G,,[I:staff -1][GB][GB][GB] | %23
[I:staff +1] E,,[I:staff -1][EG][EG]E[I:staff +1] F,,[I:staff -1][FA][FA][FA] | %24
[I:staff +1] D,,[I:staff -1][DF][DF]D[I:staff +1] E,,[I:staff -1][EG][EG][EG] | %25
[I:staff +1] A,,A,A,A,[I:staff -1] DE FG | DE FG DE FG | %27
 F/D/[I:staff +1]B,/G,/[I:staff -1] E/^C/[I:staff +1]A,/[I:staff -1]C/ F/D/[I:staff +1]B,/G,/[I:staff -1] E/C/[I:staff +1]A,/[I:staff -1]C/ | %28
 F/D/[I:staff +1]B,/G,/[I:staff -1] E/^C/[I:staff +1]A,/[I:staff -1]C/[I:staff +1] D,E, F,G, | %29
 A,G,A,A,, D,2 x/ x/[I:staff -1] G/E/ | F/D/E/^C/ D/[I:staff +1]A,/F,/A,/ TD,2 !fermata!z2 :| %31
V:4
 x8 | x8 | x8 | x8 | x8 | x8 | x8 | x8 | x8 | d/ x7/2 A/ x7/2 | x8 | x8 | x8 :: x8 | x4 d/ x7/2 | %15
 x8 | x8 | x8 | x f x e x4 | x8 | x8 | x8 | x8 | x8 | x8 | x4 d2 x2 | d2 x2 d2 x2 | %27
 x d x ^c x d x c | x4 d x3 | x8 | x8 :| %31

